X:1
T:Forester's Hornpipe
R:Hornpipe
M:C|
%%printtempo 0
Q:180
K:D
fg|\
"D"a^gaf dfbg|a^gaf d2 cd|"A"eAfA eAfA|edcB A2 fg|
"D"a^gaf dfbg|a^gaf d2 cd|"G"BGFG "A"Adce|"D"f2 d2 d2:|
|:cd|\
"A"edcB AGEG|"D"FAdf a2fa|"Em"g2 eg "D"f2df|"E"edcB "A"ABcd|
"A"edcB AGEG|"D"FAdf afbf|"G"gfed "A"cABc|"D"d2 f2d2:|
